polaris-icons/icons/newicons/RepeatOrderMajor.svg

<svg width="20" height="20" viewBox="0 0 20 20" fill="none" xmlns="http://www.w3.org/2000/svg">
<path d="M13 2.75C13 2.33579 13.3358 2 13.75 2H14C15.6569 2 17 3.34315 17 5C17 6.65685 15.6569 8 14 8H10.3107L11.0303 8.71967C11.3232 9.01256 11.3232 9.48744 11.0303 9.78033C10.7374 10.0732 10.2626 10.0732 9.96967 9.78033L7.96967 7.78033C7.67678 7.48744 7.67678 7.01256 7.96967 6.71967L9.96967 4.71967C10.2626 4.42678 10.7374 4.42678 11.0303 4.71967C11.3232 5.01256 11.3232 5.48744 11.0303 5.78033L10.3107 6.5H14C14.8284 6.5 15.5 5.82843 15.5 5C15.5 4.17157 14.8284 3.5 14 3.5H13.75C13.3358 3.5 13 3.16421 13 2.75Z" fill="black"/>
<path fill-rule="evenodd" clip-rule="evenodd" d="M7.81432 4.5C6.76735 4.5 5.85874 5.22214 5.6224 6.24208L4.69367 10.25H6.95943C7.75437 10.25 8.46013 10.7587 8.71151 11.5128C8.75872 11.6545 8.89127 11.75 9.04057 11.75H10.9594C11.1087 11.75 11.2413 11.6545 11.2885 11.5128C11.5399 10.7587 12.2456 10.25 13.0406 10.25H15.3063L15.0994 9.35681C15.0059 8.95329 15.2572 8.55037 15.6607 8.45686C16.0642 8.36335 16.4671 8.61467 16.5606 9.01819L16.9806 10.8307C16.9935 10.8862 17 10.943 17 11V13.25C17 15.3211 15.3211 17 13.25 17H6.75C4.67893 17 3 15.3211 3 13.25V11C3 10.943 3.0065 10.8862 3.01936 10.8307L4.16112 5.90347C4.55502 4.20357 6.06938 3 7.81432 3H7.965C8.37921 3 8.715 3.33579 8.715 3.75C8.715 4.16421 8.37921 4.5 7.965 4.5H7.81432ZM15.5 11.75H13.0406C12.8913 11.75 12.7587 11.8455 12.7115 11.9872C12.4601 12.7413 11.7544 13.25 10.9594 13.25H9.04057C8.24563 13.25 7.53987 12.7413 7.28849 11.9872C7.24128 11.8455 7.10873 11.75 6.95943 11.75H4.5V13.25C4.5 14.4926 5.50736 15.5 6.75 15.5H13.25C14.4926 15.5 15.5 14.4926 15.5 13.25V11.75Z" fill="black"/>
</svg>

<svg viewBox="0 0 20 20" fill="none" xmlns="http://www.w3.org/2000/svg"><path d="M13 2.75a.75.75 0 0 1 .75-.75h.25a3 3 0 1 1 0 6h-3.69l.72.72a.75.75 0 1 1-1.06 1.06l-2-2a.75.75 0 0 1 0-1.06l2-2a.75.75 0 1 1 1.06 1.06l-.72.72h3.69a1.5 1.5 0 0 0 0-3h-.25a.75.75 0 0 1-.75-.75Z" fill="#5C5F62"/><path fill-rule="evenodd" clip-rule="evenodd" d="M7.814 4.5a2.25 2.25 0 0 0-2.192 1.742l-.928 4.008h2.265c.795 0 1.501.509 1.753 1.263.047.142.18.237.329.237h1.918c.15 0 .282-.095.33-.237a1.847 1.847 0 0 1 1.752-1.263h2.265l-.207-.893a.75.75 0 0 1 1.462-.339l.42 1.813c.012.055.019.112.019.169v2.25a3.75 3.75 0 0 1-3.75 3.75h-6.5a3.75 3.75 0 0 1-3.75-3.75v-2.25a.75.75 0 0 1 .02-.17l1.141-4.927a3.75 3.75 0 0 1 3.653-2.903h.151a.75.75 0 0 1 0 1.5h-.15Zm7.686 7.25h-2.46a.347.347 0 0 0-.329.237 1.847 1.847 0 0 1-1.752 1.263h-1.918c-.795 0-1.501-.509-1.753-1.263a.347.347 0 0 0-.329-.237h-2.459v1.5a2.25 2.25 0 0 0 2.25 2.25h6.5a2.25 2.25 0 0 0 2.25-2.25v-1.5Z" fill="#5C5F62"/></svg>
